src/components/Atomic/Icon/svg/binance.svg

<svg width="100" height="96" viewBox="0 0 100 96" fill="none" xmlns="http://www.w3.org/2000/svg">
<path opacity="0.4" d="M32.2602 37.3934C32.5595 37.2959 32.8316 37.1292 33.0543 36.9067L53.5968 16.3879L66.0998 38.2869C66.5695 39.1096 67.5521 39.4899 68.4533 39.1978L73.9588 37.4134C74.2988 37.3032 74.6031 37.1039 74.8399 36.8362L80.8712 30.0203C81.571 29.2295 81.5354 28.031 80.79 27.2831L53.5968 0L46.4025 2.88722L25.553 28.0418C25.252 28.405 25.089 28.863 25.0929 29.3348L25.1681 38.334C25.1737 39.0101 25.8348 39.4858 26.4777 39.2765L32.2602 37.3934ZM7.30671 46.2733C7.23314 46.4578 7.2162 46.6601 7.25805 46.8543L9.82813 58.7803C9.95651 59.376 10.5833 59.7193 11.1545 59.5068L17.4759 57.1544C17.611 57.1042 17.7336 57.0253 17.8354 56.9232L27.4644 47.2623C27.8533 46.8721 27.8533 46.2407 27.4644 45.8505L18.1621 36.5175C17.8718 36.2262 17.4328 36.1424 17.0556 36.3061L10.0716 39.3383L7.30671 46.2733ZM33.725 56.8807C33.1212 56.2748 32.199 56.12 31.4304 56.4954L25.1795 59.5489L25.0987 63.8749C25.091 64.2872 25.2109 64.6918 25.4421 65.0333L46.4025 96L53.5968 93.1128L80.79 65.8297C81.5354 65.0818 81.571 63.8832 80.8712 63.0924L75.4659 56.9839C74.8798 56.3216 73.9283 56.1228 73.1261 56.4952L66.5465 59.5489L53.5922 76.818L33.725 56.8807ZM79.1466 46.2641C79.0679 46.4543 79.0498 46.6642 79.0947 46.8651L81.7626 58.7857C81.8954 59.3792 82.5228 59.7177 83.0917 59.5029L89.3104 57.1545C89.4437 57.1042 89.5648 57.0259 89.6654 56.925L99.2962 47.2623C99.6851 46.8721 99.6851 46.2407 99.2962 45.8505L89.9967 36.5203C89.705 36.2276 89.2634 36.1445 88.8853 36.3111L82.0141 39.3383L79.1466 46.2641ZM63.5297 47.253C63.9182 46.8627 63.918 46.2317 63.5292 45.8416L54.0677 36.3488C53.7826 36.0628 53.3533 35.9763 52.9797 36.1297L46.8196 38.6586C46.3228 38.8625 45.9288 39.2577 45.7265 39.7552L43.085 46.2495C43.0075 46.4401 42.9907 46.65 43.0368 46.8506L45.7913 58.8172C45.9254 59.3994 46.5365 59.7349 47.0997 59.5355L53.3777 57.3124C53.5189 57.2624 53.647 57.1813 53.7527 57.0752L63.5297 47.253Z" fill="#DCAC50"/>
<path d="M24.1139 38.5378C24.8769 39.4021 26.2108 39.4439 27.0266 38.6291L46.403 19.2751L65.7811 38.6308C66.5962 39.445 67.9288 39.404 68.6923 38.5412L73.6774 32.9075C74.3771 32.1167 74.3416 30.9182 73.5961 30.1703L46.403 2.88721L19.2176 30.1625C18.4727 30.9098 18.4365 32.1071 19.1348 32.898L24.1139 38.5378ZM0.703612 48.7377C0.314642 49.1279 0.314643 49.7593 0.703612 50.1495L9.7788 59.2547C10.1696 59.6468 10.8046 59.6468 11.1953 59.2547L20.2705 50.1495C20.6595 49.7593 20.6595 49.1279 20.2705 48.7377L11.1953 39.6325C10.8046 39.2404 10.1696 39.2404 9.7788 39.6325L0.703612 48.7377ZM27.0266 60.2651C26.2114 59.4471 24.8749 59.4875 24.1106 60.3532L19.1348 65.9891C18.4365 66.7801 18.4727 67.9774 19.2176 68.7247L46.403 96L73.5961 68.7169C74.3416 67.969 74.3771 66.7704 73.6774 65.9796L68.6953 60.3494C67.9307 59.4854 66.5956 59.4457 65.7811 60.2627L46.3983 79.7052L27.0266 60.2651ZM72.5354 48.7377C72.1464 49.1279 72.1464 49.7593 72.5354 50.1495L81.6106 59.2547C82.0014 59.6468 82.6363 59.6468 83.0271 59.2547L92.1023 50.1495C92.4913 49.7593 92.4913 49.1279 92.1023 48.7377L83.0271 39.6325C82.6363 39.2404 82.0014 39.2404 81.6106 39.6325L72.5354 48.7377ZM56.3358 50.1402C56.7244 49.7499 56.7242 49.1189 56.3354 48.7288L47.1112 39.4742C46.7204 39.0821 46.0855 39.0821 45.6947 39.4742L36.4746 48.7248C36.086 49.1146 36.0855 49.7451 36.4735 50.1356L45.6896 59.4104C46.0804 59.8037 46.7165 59.8039 47.1077 59.411L56.3358 50.1402Z" fill="#DCAC50"/>
</svg>

<svg width="100" height="96" fill="none" xmlns="http://www.w3.org/2000/svg"><path opacity=".4" d="M32.26 37.393a2 2 0 00.794-.486l20.543-20.52 12.503 21.9a2 2 0 002.353.91l5.506-1.784a2 2 0 00.88-.577l6.032-6.816a2 2 0 00-.081-2.737L53.597 0l-7.194 2.887-20.85 25.155a2 2 0 00-.46 1.293l.075 8.999a1 1 0 001.31.942l5.782-1.883zm-24.953 8.88a1 1 0 00-.049.581l2.57 11.926a1 1 0 001.327.727l6.32-2.353a1 1 0 00.36-.23l9.63-9.662a1 1 0 000-1.412l-9.303-9.333a1 1 0 00-1.106-.21l-6.984 3.031-2.765 6.935zm26.418 10.608a2 2 0 00-2.295-.386l-6.25 3.054-.081 4.326a2 2 0 00.343 1.158L46.402 96l7.195-2.887L80.79 65.83a2 2 0 00.081-2.738l-5.405-6.108a2 2 0 00-2.34-.489l-6.58 3.054-12.954 17.269-19.867-19.937zm45.422-10.617c-.08.19-.097.4-.052.601l2.668 11.92a1 1 0 001.329.718l6.218-2.349a1 1 0 00.355-.229l9.631-9.663a1 1 0 000-1.412l-9.3-9.33a1 1 0 00-1.11-.209l-6.872 3.027-2.867 6.926zm-15.617.989a1 1 0 000-1.411l-9.462-9.493a1 1 0 00-1.088-.22l-6.16 2.53a2 2 0 00-1.093 1.096l-2.642 6.494a1 1 0 00-.048.602l2.754 11.966a1 1 0 001.309.718l6.278-2.223c.14-.05.269-.13.375-.237l9.777-9.822z" fill="#DCAC50"/><path d="M24.114 38.538a2 2 0 002.913.091l19.376-19.354 19.378 19.356a2 2 0 002.911-.09l4.985-5.633a2 2 0 00-.08-2.738L46.402 2.887 19.218 30.163a2 2 0 00-.083 2.735l4.979 5.64zm-23.41 10.2a1 1 0 000 1.412l9.075 9.105a1 1 0 001.416 0l9.075-9.105a1 1 0 000-1.412l-9.075-9.105a1 1 0 00-1.416 0L.704 48.737zm26.323 11.527a2 2 0 00-2.916.088l-4.976 5.636a2 2 0 00.083 2.736L46.403 96l27.193-27.283a2 2 0 00.081-2.737l-4.982-5.63a2 2 0 00-2.914-.087L46.398 79.705l-19.371-19.44zm45.508-11.527a1 1 0 000 1.412l9.076 9.105a1 1 0 001.416 0l9.075-9.105a1 1 0 000-1.412l-9.075-9.105a1 1 0 00-1.416 0l-9.076 9.105zm-16.2 1.402a1 1 0 000-1.411l-9.224-9.255a1 1 0 00-1.416 0l-9.22 9.25a1 1 0 00-.002 1.412l9.217 9.274a1 1 0 001.418.001l9.228-9.27z" fill="#DCAC50"/></svg>
